azure-icons/Tags.svg

<svg xmlns="http://www.w3.org/2000/svg" viewBox="0 0 18 18"><defs><linearGradient id="a" x1="9.84" y1="3.825" x2="9.84" y2="17.5" gradientUnits="userSpaceOnUse"><stop offset="0" stop-color="#c69aeb"/><stop offset="1" stop-color="#6f4bb2"/></linearGradient></defs><path d="M14.977 2.5L13.1.635A.471.471 0 0012.753.5L9.271.627a.462.462 0 00-.312.135L1.342 8.339a.462.462 0 000 .654l5.074 5.047a.465.465 0 00.657 0L14.7 6.454a.456.456 0 00.134-.288l.279-3.3a.461.461 0 00-.136-.366zm-2.266 1.237a.843.843 0 11.848-.843.845.845 0 01-.848.843z" fill="#773adc"/><path d="M12.711 1.383a1.512 1.512 0 101.52 1.511 1.515 1.515 0 00-1.52-1.511zm.832 1.676a.848.848 0 11-1-.992.84.84 0 011 .992z" fill="#341a6e"/><path d="M16.658 5.828L14.78 3.96a.466.466 0 00-.346-.135l-3.483.126a.473.473 0 00-.312.135l-7.616 7.577a.46.46 0 000 .654L8.1 17.365a.467.467 0 00.657 0l7.623-7.586a.464.464 0 00.134-.288l.278-3.3a.459.459 0 00-.134-.363zm-2.266 1.234a.843.843 0 11.847-.843.846.846 0 01-.847.843z" fill="url(#a)"/><path d="M14.392 4.707a1.512 1.512 0 101.519 1.512 1.516 1.516 0 00-1.519-1.512zm.831 1.677a.848.848 0 11-1-.992.842.842 0 011 .992z" fill="#552f99"/><path d="M15.223 6.384a.848.848 0 11-1-.992.842.842 0 011 .992zM13.543 3.059a.848.848 0 11-1-.992.84.84 0 011 .992z" fill="#fff"/></svg>

<svg xmlns="http://www.w3.org/2000/svg" width="18" height="18" viewBox="0 0 18 18"><defs><linearGradient id="b268b68b-f2b0-4718-bede-3ae3d396ebbf" x1="9.84" y1="3.825" x2="9.84" y2="17.5" gradientUnits="userSpaceOnUse"><stop offset="0" stop-color="#c69aeb" /><stop offset="1" stop-color="#6f4bb2" /></linearGradient></defs><title>MsPortalFx.base.images-5</title><g id="b69db069-1719-487b-b12e-01dde1b9ea26"><g><path d="M14.977,2.5,13.1.635A.471.471,0,0,0,12.753.5L9.271.627a.462.462,0,0,0-.312.135L1.342,8.339a.462.462,0,0,0,0,.654L6.416,14.04a.465.465,0,0,0,.657,0L14.7,6.454a.456.456,0,0,0,.134-.288l.279-3.3A.461.461,0,0,0,14.977,2.5ZM12.711,3.737a.843.843,0,1,1,.848-.843A.845.845,0,0,1,12.711,3.737Z" fill="#773adc" /><path d="M12.711,1.383a1.512,1.512,0,1,0,1.52,1.511A1.515,1.515,0,0,0,12.711,1.383Zm.832,1.676a.848.848,0,1,1-1-.992A.84.84,0,0,1,13.543,3.059Z" fill="#341a6e" /><g><path d="M16.658,5.828,14.78,3.96a.466.466,0,0,0-.346-.135l-3.483.126a.473.473,0,0,0-.312.135L3.023,11.663a.46.46,0,0,0,0,.654L8.1,17.365a.467.467,0,0,0,.657,0L16.38,9.779a.464.464,0,0,0,.134-.288l.278-3.3A.459.459,0,0,0,16.658,5.828ZM14.392,7.062a.843.843,0,1,1,.847-.843A.846.846,0,0,1,14.392,7.062Z" fill="url(#b268b68b-f2b0-4718-bede-3ae3d396ebbf)" /><path d="M14.392,4.707a1.512,1.512,0,1,0,1.519,1.512A1.516,1.516,0,0,0,14.392,4.707Zm.831,1.677a.848.848,0,1,1-1-.992A.842.842,0,0,1,15.223,6.384Z" fill="#552f99" /></g><path d="M15.223,6.384a.848.848,0,1,1-1-.992A.842.842,0,0,1,15.223,6.384Z" fill="#fff" /><path d="M13.543,3.059a.848.848,0,1,1-1-.992A.84.84,0,0,1,13.543,3.059Z" fill="#fff" /></g></g></svg>
